svg/blobs-icons/no-decorations/map.svg

<svg xmlns="http://www.w3.org/2000/svg" xmlns:xlink="http://www.w3.org/1999/xlink" preserveAspectRatio="xMidYMid" width="216" height="216" viewBox="0 0 216 216"><defs><style>.cls-3{fill:#0cb04a}.cls-5{fill:#000;opacity:.35}</style></defs><g id="group-148svg"><path d="M74.965.015S-.006 18.758-.006 18.758s0 178.048.0 178.048 74.971-18.742 74.971-18.742 65.599 37.484 65.599 37.484 74.97-18.742 74.97-18.742.0-178.048.0-178.048-74.97 18.741-74.97 18.741S74.965.015 74.965.015s0 0 0 0z" id="path-1" class="cls-3" fill-rule="evenodd"/><path d="M140.564 215.548s0-178.049.0-178.049S74.965.015 74.965.015s0 178.049.0 178.049 65.599 37.484 65.599 37.484z" id="path-2" class="cls-3" fill-rule="evenodd"/><path d="M140.564 215.548s0-178.049.0-178.049S74.965.015 74.965.015s0 178.049.0 178.049 65.599 37.484 65.599 37.484z" id="path-3" class="cls-5" fill-rule="evenodd"/></g></svg>

<svg xmlns="http://www.w3.org/2000/svg" xmlns:xlink="http://www.w3.org/1999/xlink" preserveAspectRatio="xMidYMid" width="216" height="216" viewBox="0 0 216 216">
  <defs>
    <style>

      .cls-3 {
        fill: #0cb04a;
      }

      .cls-5 {
        fill: #000000;
        opacity: 0.35;
      }
    </style>
  </defs>
  <g id="group-148svg">
    <path d="M74.965,0.015 C74.965,0.015 -0.006,18.758 -0.006,18.758 C-0.006,18.758 -0.006,196.806 -0.006,196.806 C-0.006,196.806 74.965,178.064 74.965,178.064 C74.965,178.064 140.564,215.548 140.564,215.548 C140.564,215.548 215.534,196.806 215.534,196.806 C215.534,196.806 215.534,18.758 215.534,18.758 C215.534,18.758 140.564,37.499 140.564,37.499 C140.564,37.499 74.965,0.015 74.965,0.015 C74.965,0.015 74.965,0.015 74.965,0.015 Z" id="path-1" class="cls-3" fill-rule="evenodd"/>
    <path d="M140.564,215.548 C140.564,215.548 140.564,37.499 140.564,37.499 C140.564,37.499 74.965,0.015 74.965,0.015 C74.965,0.015 74.965,178.064 74.965,178.064 C74.965,178.064 140.564,215.548 140.564,215.548 Z" id="path-2" class="cls-3" fill-rule="evenodd"/>
    <path d="M140.564,215.548 C140.564,215.548 140.564,37.499 140.564,37.499 C140.564,37.499 74.965,0.015 74.965,0.015 C74.965,0.015 74.965,178.064 74.965,178.064 C74.965,178.064 140.564,215.548 140.564,215.548 Z" id="path-3" class="cls-5" fill-rule="evenodd"/>
  </g>
</svg>
